pages/svg/header-mob-burger-close.svg

<svg width="24" height="24" viewBox="0 0 24 24" fill="none" xmlns="http://www.w3.org/2000/svg">
<path fill-rule="evenodd" clip-rule="evenodd" d="M5.29749 18.6984C5.68742 19.0883 6.32405 19.1043 6.70602 18.7223L11.9979 13.4304L17.1387 18.5711C17.5207 18.9531 18.1732 18.9531 18.5631 18.5631C18.9531 18.1732 18.9451 17.5286 18.5631 17.1466L13.4224 12.0059L18.7223 6.70602C19.1043 6.32405 19.0883 5.68742 18.6984 5.29749C18.3085 4.90756 17.6798 4.8996 17.2978 5.28158L11.9979 10.5815L6.84926 5.43277C6.46729 5.0508 5.82271 5.04284 5.43277 5.43277C5.04284 5.82271 5.04284 6.47524 5.42482 6.85722L10.5735 12.0059L5.28158 17.2978C4.8996 17.6798 4.90756 18.3085 5.29749 18.6984Z" fill="#263238"/>
</svg>

<svg width="24" height="24" viewBox="0 0 24 24" fill="none" xmlns="http://www.w3.org/2000/svg">
    <path fill-rule="evenodd" clip-rule="evenodd" d="M5.297 18.698c.39.39 1.027.406 1.409.024l5.292-5.292 5.14 5.141a1.02 1.02 0 001.425-.008c.39-.39.382-1.034 0-1.416l-5.14-5.141 5.3-5.3c.381-.382.365-1.019-.025-1.409a.992.992 0 00-1.4-.015l-5.3 5.3-5.149-5.15a1.011 1.011 0 00-1.416 0c-.39.39-.39 1.043-.008 1.425l5.148 5.149-5.291 5.292a.992.992 0 00.015 1.4z" fill="#263238"/>
</svg>
